X:1
T:The Foggy Dew
M:6/8
L:1/8
K:C
 z4 z B| dde dBG| dded-B A| GEGe-d B| B3- A z D| G2 GA-G A|B-d B AGA|\
 B3/2- A/2 G E2 ^F| G4 z2|
